public/assets/images/step6.svg

<svg width="118" height="100" viewBox="0 0 118 100" fill="none" xmlns="http://www.w3.org/2000/svg">
<circle cx="50" cy="50" r="46.5" stroke="#8BCDE8" stroke-width="7"/>
<path d="M99.1667 58V45.5L116 51L99.1667 58Z" fill="#8BCDE8" stroke="#8BCDE8"/>
<path d="M57.8 31.85C55.5333 32.2833 53.4667 33.05 51.6 34.15C49.7667 35.25 48.1667 36.65 46.8 38.35C45.4667 40.05 44.4333 42 43.7 44.2C43 46.4 42.65 48.7833 42.65 51.35C42.65 53.5833 42.8 55.4833 43.1 57.05C43.4333 58.5833 43.9 59.8333 44.5 60.8C45.1 61.7667 45.8167 62.4667 46.65 62.9C47.5167 63.3333 48.4333 63.55 49.4 63.55C50.6333 63.55 51.6833 63.2 52.55 62.5C53.4167 61.7667 54.0833 60.7167 54.55 59.35C55.0167 57.9833 55.25 56.3833 55.25 54.55C55.25 52.8833 55.05 51.4333 54.65 50.2C54.2833 48.9667 53.7 48.0167 52.9 47.35C52.1333 46.65 51.1333 46.3 49.9 46.3C48.9667 46.3 48.1 46.4833 47.3 46.85C46.5 47.1833 45.75 47.65 45.05 48.25C44.3833 48.85 43.7667 49.5667 43.2 50.4C42.6333 51.2333 42.1333 52.1167 41.7 53.05L41.25 50.55C41.5833 49.6833 42.0333 48.8333 42.6 48C43.2 47.1333 43.9167 46.35 44.75 45.65C45.5833 44.95 46.5333 44.4 47.6 44C48.6667 43.5667 49.85 43.35 51.15 43.35C53.1167 43.35 54.8667 43.8 56.4 44.7C57.9333 45.5667 59.1333 46.8333 60 48.5C60.9 50.1333 61.35 52.1167 61.35 54.45C61.35 56.8167 60.8333 58.9167 59.8 60.75C58.8 62.55 57.4 63.9667 55.6 65C53.8333 66 51.8 66.5 49.5 66.5C47.0333 66.5 44.8333 65.95 42.9 64.85C40.9667 63.7167 39.4333 62.0167 38.3 59.75C37.2 57.4833 36.65 54.65 36.65 51.25C36.65 48.5167 37.1333 45.9333 38.1 43.5C39.1 41.0333 40.5167 38.8 42.35 36.8C44.1833 34.8 46.3667 33.1167 48.9 31.75C51.4333 30.3833 54.25 29.4667 57.35 29L57.8 31.85Z" fill="#8BCDE8"/>
</svg>

<svg xmlns="http://www.w3.org/2000/svg" width="118" height="100" fill="none"><circle cx="50" cy="50" r="46.5" stroke="#8BCDE8" stroke-width="7"/><path fill="#8BCDE8" stroke="#8BCDE8" d="M99.167 58V45.5L116 51z"/><path fill="#8BCDE8" d="M57.8 31.85q-3.4.65-6.2 2.3a18 18 0 0 0-4.8 4.2q-2 2.55-3.1 5.85-1.05 3.3-1.05 7.15 0 3.35.45 5.7.5 2.3 1.4 3.75t2.15 2.1q1.3.65 2.75.65 1.85 0 3.15-1.05 1.3-1.1 2-3.15t.7-4.8q0-2.5-.6-4.35-.55-1.85-1.75-2.85-1.15-1.05-3-1.05-1.4 0-2.6.55-1.2.5-2.25 1.4-1 .9-1.85 2.15a19 19 0 0 0-1.5 2.65l-.45-2.5q.5-1.3 1.35-2.55.9-1.3 2.15-2.35A9.7 9.7 0 0 1 47.6 44q1.6-.65 3.55-.65 2.95 0 5.25 1.35 2.3 1.3 3.6 3.8 1.35 2.45 1.35 5.95 0 3.55-1.55 6.3-1.5 2.7-4.2 4.25-2.65 1.5-6.1 1.5-3.7 0-6.6-1.65-2.9-1.7-4.6-5.1-1.65-3.4-1.65-8.5 0-4.1 1.45-7.75 1.5-3.7 4.25-6.7t6.55-5.05T57.35 29z"/></svg>
